svg/ibm.svg

<?xml version="1.0" encoding="UTF-8"?>
<svg xmlns="http://www.w3.org/2000/svg" xmlns:xlink="http://www.w3.org/1999/xlink" width="32" height="32" viewBox="0 0 32 32">
<path fill-rule="nonzero" fill="rgb(0%, 0%, 0%)" fill-opacity="1" d="M 0 8.964844 L 6.230469 8.964844 L 6.230469 9.84375 L 0 9.84375 Z M 13.816406 8.964844 L 7.121094 8.964844 L 7.121094 9.84375 L 16.046875 9.84375 L 15.90625 9.707031 L 15.726562 9.578125 L 15.539062 9.449219 L 15.335938 9.339844 L 15.132812 9.242188 L 14.925781 9.160156 L 14.707031 9.085938 L 14.484375 9.039062 L 14.265625 9 L 14.050781 8.964844 Z M 17.800781 8.964844 L 17.800781 9.84375 L 23.175781 9.84375 L 22.867188 8.964844 Z M 26.984375 8.964844 L 26.671875 9.84375 L 32 9.84375 L 32 8.964844 Z M 0 10.671875 L 0 11.535156 L 6.230469 11.535156 L 6.230469 10.671875 Z M 1.78125 12.363281 L 1.78125 13.246094 L 4.441406 13.246094 L 4.441406 12.363281 Z M 1.78125 14.058594 L 1.78125 14.945312 L 4.441406 14.945312 L 4.441406 14.058594 Z M 16.675781 10.671875 L 7.121094 10.671875 L 7.121094 11.535156 L 17.007812 11.535156 L 16.90625 11.1875 L 16.824219 10.960938 L 16.726562 10.753906 Z M 8.902344 12.363281 L 8.902344 13.246094 L 11.5625 13.246094 L 11.5625 12.363281 Z M 17.09375 12.363281 L 14.242188 12.363281 L 14.242188 13.246094 L 16.949219 13.246094 L 16.972656 13.171875 L 17.023438 12.953125 L 17.058594 12.730469 L 17.085938 12.503906 Z M 16.570312 14.058594 L 8.902344 14.058594 L 8.902344 14.945312 L 15.726562 14.945312 L 15.878906 14.84375 L 16.046875 14.699219 L 16.203125 14.535156 L 16.347656 14.363281 L 16.488281 14.183594 Z M 17.800781 10.671875 L 17.800781 11.535156 L 23.773438 11.535156 L 23.460938 10.671875 Z M 32 10.671875 L 26.386719 10.671875 L 26.085938 11.535156 L 32 11.535156 Z M 19.585938 12.363281 L 19.585938 13.246094 L 24.359375 13.246094 L 24.050781 12.363281 Z M 30.265625 12.363281 L 25.789062 12.363281 L 25.484375 13.246094 L 30.265625 13.246094 Z M 22.535156 14.941406 L 27.324219 14.941406 L 27.59375 14.15625 L 27.59375 14.941406 L 30.265625 14.941406 L 30.265625 14.058594 L 25.203125 14.058594 L 24.925781 14.84375 L 24.648438 14.058594 L 19.585938 14.058594 L 19.585938 14.941406 L 22.253906 14.941406 L 22.253906 14.152344 Z M 0 20.863281 L 0 21.753906 L 6.230469 21.753906 L 6.230469 20.863281 Z M 0 19.15625 L 0 20.046875 L 6.230469 20.046875 L 6.230469 19.15625 Z M 1.78125 15.765625 L 1.78125 16.640625 L 4.441406 16.640625 L 4.441406 15.765625 Z M 1.78125 17.464844 L 1.78125 18.347656 L 4.441406 18.347656 L 4.441406 17.464844 Z M 15.726562 15.765625 L 8.902344 15.765625 L 8.902344 16.640625 L 16.570312 16.640625 L 16.488281 16.539062 L 16.347656 16.359375 L 16.203125 16.183594 L 16.046875 16.019531 L 15.875 15.875 Z M 8.902344 17.464844 L 8.902344 18.347656 L 11.5625 18.347656 L 11.5625 17.464844 Z M 16.949219 17.464844 L 14.242188 17.464844 L 14.242188 18.347656 L 17.09375 18.347656 L 17.085938 18.214844 L 17.058594 17.988281 L 17.027344 17.769531 L 16.972656 17.550781 Z M 17.011719 19.15625 L 7.121094 19.15625 L 7.121094 20.046875 L 16.675781 20.046875 L 16.726562 19.96875 L 16.824219 19.761719 L 16.90625 19.546875 L 16.972656 19.335938 Z M 16.046875 20.863281 L 7.121094 20.863281 L 7.121094 21.753906 L 13.785156 21.753906 L 14.015625 21.746094 L 14.242188 21.71875 L 14.453125 21.679688 L 14.675781 21.632812 L 14.898438 21.554688 L 15.101562 21.476562 L 15.304688 21.378906 L 15.511719 21.269531 L 15.695312 21.148438 L 15.878906 21.007812 Z M 19.585938 15.765625 L 19.585938 16.640625 L 22.253906 16.640625 L 22.253906 15.765625 Z M 26.730469 16.640625 L 27.039062 15.765625 L 22.808594 15.765625 L 23.109375 16.640625 Z M 27.59375 15.765625 L 27.59375 16.640625 L 30.265625 16.640625 L 30.265625 15.765625 Z M 19.585938 17.464844 L 19.585938 18.347656 L 22.253906 18.347656 L 22.253906 17.464844 Z M 26.460938 17.464844 L 23.390625 17.464844 L 23.691406 18.347656 L 26.15625 18.347656 Z M 27.59375 17.464844 L 27.59375 18.347656 L 30.265625 18.347656 L 30.265625 17.464844 Z M 17.800781 19.15625 L 17.800781 20.046875 L 22.253906 20.046875 L 22.253906 19.15625 Z M 25.878906 19.15625 L 23.96875 19.15625 L 24.273438 20.046875 L 25.578125 20.046875 Z M 27.59375 19.15625 L 27.59375 20.046875 L 32 20.046875 L 32 19.15625 Z M 17.800781 20.863281 L 17.800781 21.753906 L 22.253906 21.753906 L 22.253906 20.863281 Z M 27.59375 20.863281 L 27.59375 21.753906 L 32 21.753906 L 32 20.863281 Z M 24.988281 21.753906 L 25.292969 20.867188 L 24.558594 20.867188 L 24.859375 21.753906 Z M 24.988281 21.753906 "/>
</svg>

<svg role="img" viewBox="0 0 32 32" xmlns="http://www.w3.org/2000/svg"><path d="M0 8.965h6.23v.879H0Zm13.816 0H7.121v.879h8.926l-.14-.137-.18-.129-.188-.129-.203-.11-.203-.097-.207-.082-.219-.074-.223-.047L14.266 9l-.215-.035Zm3.985 0v.879h5.375l-.309-.88Zm9.183 0-.312.879H32v-.88ZM0 10.672v.863h6.23v-.863Zm1.781 1.691v.883h2.66v-.883Zm0 1.696v.886h2.66v-.886Zm14.895-3.387H7.12v.863h9.887l-.102-.348-.082-.226-.097-.207Zm-7.774 1.691v.883h2.66v-.883Zm8.192 0h-2.852v.883h2.707l.024-.074.05-.219.036-.223.027-.226Zm-.524 1.696H8.902v.886h6.825l.152-.101.168-.145.156-.164.145-.172.14-.18Zm1.23-3.387v.863h5.973l-.312-.863Zm14.2 0h-5.613l-.301.863H32Zm-12.414 1.691v.883h4.773l-.308-.883Zm10.68 0h-4.477l-.305.883h4.782Zm-7.73 2.578h4.788l.27-.785v.785h2.672v-.882h-5.063l-.277.785-.278-.785h-5.062v.882h2.668v-.789ZM0 20.863v.89h6.23v-.89Zm0-1.707v.89h6.23v-.89Zm1.781-3.39v.875h2.66v-.875Zm0 1.699v.883h2.66v-.883Zm13.946-1.7H8.902v.876h7.668l-.082-.102-.14-.18-.145-.175-.156-.164-.172-.145Zm-6.825 1.7v.883h2.66v-.883Zm8.047 0h-2.707v.883h2.852l-.008-.133-.027-.227-.032-.218-.054-.22Zm.063 1.691h-9.89v.89h9.554l.05-.077.098-.207.082-.215.067-.211Zm-.965 1.707H7.12v.89h6.664l.23-.007.227-.027.211-.04.223-.046.222-.078.204-.078.203-.098.207-.11.183-.12.184-.141Zm3.539-5.097v.875h2.668v-.875Zm7.144.875.31-.875h-4.231l.3.875Zm.864-.875v.875h2.672v-.875Zm-8.008 1.699v.883h2.668v-.883Zm6.875 0h-3.07l.3.883h2.465Zm1.133 0v.883h2.672v-.883ZM17.8 19.156v.89h4.453v-.89Zm8.078 0h-1.91l.304.89h1.305Zm1.715 0v.89H32v-.89ZM17.8 20.863v.89h4.453v-.89Zm9.793 0v.89H32v-.89Zm-2.606.89.305-.886h-.734l.3.887Zm0 0"/></svg>
